src/components/datetimedepthselector/img/depth.svg

<?xml version="1.0" encoding="UTF-8" standalone="no"?>
<!-- Created with Inkscape (http://www.inkscape.org/) -->

<svg
   xmlns:dc="http://purl.org/dc/elements/1.1/"
   xmlns:cc="http://creativecommons.org/ns#"
   xmlns:rdf="http://www.w3.org/1999/02/22-rdf-syntax-ns#"
   xmlns:svg="http://www.w3.org/2000/svg"
   xmlns="http://www.w3.org/2000/svg"
   xmlns:sodipodi="http://sodipodi.sourceforge.net/DTD/sodipodi-0.dtd"
   xmlns:inkscape="http://www.inkscape.org/namespaces/inkscape"
   width="150.31708mm"
   height="125.20927mm"
   viewBox="0 0 150.31708 125.20927"
   version="1.1"
   id="svg906"
   inkscape:version="0.92.3 (2405546, 2018-03-11)"
   sodipodi:docname="depth.svg">
  <defs
     id="defs900" />
  <sodipodi:namedview
     id="base"
     pagecolor="#ffffff"
     bordercolor="#666666"
     borderopacity="1.0"
     inkscape:pageopacity="0.0"
     inkscape:pageshadow="2"
     inkscape:zoom="0.35"
     inkscape:cx="-3.0790695"
     inkscape:cy="-131.95549"
     inkscape:document-units="mm"
     inkscape:current-layer="layer1"
     showgrid="false"
     inkscape:window-width="1859"
     inkscape:window-height="1025"
     inkscape:window-x="61"
     inkscape:window-y="27"
     inkscape:window-maximized="1" />
  <metadata
     id="metadata903">
    <rdf:RDF>
      <cc:Work
         rdf:about="">
        <dc:format>image/svg+xml</dc:format>
        <dc:type
           rdf:resource="http://purl.org/dc/dcmitype/StillImage" />
        <dc:title></dc:title>
      </cc:Work>
    </rdf:RDF>
  </metadata>
  <g
     inkscape:label="Layer 1"
     inkscape:groupmode="layer"
     id="layer1"
     transform="translate(25.265687,11.289159)">
    <path
       style="fill:#ffffff;stroke-width:1.44390333"
       d="m -9.9823858,-0.1076218 c -3.6310902,-2.2991078 -8.7413602,-4.750257 -11.3561202,-5.4469711 -5.32267,-1.4182788 -5.21198,-4.0796318 0.19295,-4.6406571 2.17318,-0.225689 6.64495,1.5200693 11.6119902,4.5329294 4.44281,2.694841 9.69011,4.8997428 11.66076,4.8997428 1.97063,0 6.95098,-2.1758 11.0675398,-4.8350969 10.385221,-6.7089573 19.323891,-6.2004713 29.853051,1.69829 2.29969,1.725244 5.851139,3.1368069 7.89197,3.1368069 2.040761,0 5.59221,-1.4115629 7.891968,-3.1368069 10.529081,-7.8987613 19.46778,-8.4072473 29.85301,-1.69829 4.11654,2.6592969 9.09691,4.8350969 11.06753,4.8350969 7.976577,-1.9317809 18.623557,-8.5656865 20.703207,-10.0209042 4.91116,-2.122981 5.44687,3.0252394 3.65747,4.618843 -1.97063,0 -6.69755,2.7427653 -11.0817,5.4020612 -11.26864,6.835188 -17.394877,6.435206 -29.307377,-1.9135159 -5.9093,-4.1414451 -10.578578,-3.646847 -19.405787,2.0556449 -7.005953,4.525894 -8.333682,4.918062 -14.642902,4.324966 -4.85344,-0.456404 -8.83734,-1.951801 -13.258181,-4.977226 C 28.769794,-6.5060517 23.801985,-6.7310097 17.640813,-2.1229277 7.6296332,5.3647492 -0.4128558,5.9514962 -9.9824458,-0.1076218 Z"
       id="path873"
       inkscape:connector-curvature="0"
       sodipodi:nodetypes="ccccsccsccccccscccccc" />
    <path
       style="fill:#ffffff;stroke-width:0.49429321"
       d="m 31.979343,94.421571 -21.133739,-19.498532 1.96877,-1.332105 c 1.08285,-0.73265 2.178079,-1.232419 2.433889,-1.110583 0.255802,0.121848 8.158842,7.378652 17.562332,16.126285 L 49.907843,104.51143 50.051076,57.152832 50.194295,9.7942452 h 2.81038 2.810391 l 0.143219,47.3585868 0.143229,47.358598 17.097251,-15.904794 c 9.403488,-8.747633 17.314168,-16.008112 17.579318,-16.134384 0.26515,-0.126283 1.35101,0.412951 2.41305,1.198271 l 1.93098,1.427864 -21.004577,19.410844 -21.00458,19.410879 z"
       id="path888"
       inkscape:connector-curvature="0" />
  </g>
</svg>

<svg xmlns="http://www.w3.org/2000/svg" width="568.128" height="473.232" viewBox="0 0 150.317 125.209"><path style="fill:#fff;stroke-width:1.44390333" d="M-9.982-.108c-3.631-2.299-8.742-4.75-11.357-5.447-5.322-1.418-5.211-4.08.193-4.64 2.174-.226 6.645 1.52 11.612 4.533 4.443 2.695 9.69 4.9 11.661 4.9 1.97 0 6.951-2.176 11.068-4.836 10.385-6.709 19.324-6.2 29.853 1.699 2.3 1.725 5.85 3.136 7.892 3.136 2.04 0 5.592-1.411 7.892-3.136C69.36-11.8 78.3-12.307 88.685-5.598 92.8-2.938 97.782-.763 99.752-.763c7.977-1.931 18.624-8.565 20.703-10.02 4.912-2.123 5.447 3.025 3.658 4.618-1.97 0-6.698 2.743-11.082 5.402-11.268 6.836-17.395 6.436-29.307-1.913-5.91-4.142-10.579-3.647-19.406 2.056-7.006 4.525-8.334 4.918-14.643 4.325-4.853-.457-8.837-1.952-13.258-4.978-7.647-5.233-12.615-5.458-18.776-.85C7.63 5.365-.413 5.951-9.982-.108Z" transform="translate(25.266 11.29)"/><path style="fill:#fff;stroke-width:.49429321" d="M31.98 94.422 10.845 74.923l1.968-1.332c1.083-.733 2.178-1.232 2.434-1.11.256.121 8.16 7.378 17.563 16.126l17.097 15.904.143-47.358.143-47.359h5.621l.143 47.359.144 47.358 17.097-15.904c9.403-8.748 17.314-16.008 17.58-16.135.264-.126 1.35.413 2.412 1.199l1.931 1.427L74.118 94.51 53.113 113.92z" transform="translate(25.266 11.29)"/></svg>
